dist/img/twitter.svg

<svg width="22" height="18" viewBox="0 0 22 18" fill="none" xmlns="http://www.w3.org/2000/svg">
<path d="M21.6964 2.89286C20.9196 3.22768 20.0759 3.46875 19.2054 3.5625C20.1027 3.02678 20.7857 2.18303 21.1071 1.17857C20.2768 1.67411 19.3393 2.03571 18.3616 2.22321C17.5714 1.37946 16.4464 0.857142 15.2009 0.857142C12.8036 0.857142 10.875 2.79911 10.875 5.18303C10.875 5.51786 10.9152 5.85268 10.9821 6.17411C7.39286 5.98661 4.19196 4.27232 2.0625 1.64732C1.6875 2.29018 1.47321 3.02678 1.47321 3.83036C1.47321 5.33036 2.23661 6.65625 3.40179 7.43303C2.69196 7.40625 2.02232 7.20536 1.44643 6.88393C1.44643 6.89732 1.44643 6.92411 1.44643 6.9375C1.44643 9.04018 2.93304 10.7812 4.91518 11.183C4.55357 11.2768 4.16518 11.3304 3.77679 11.3304C3.49554 11.3304 3.22768 11.3036 2.95982 11.2634C3.50893 12.9777 5.10268 14.2232 7.00446 14.2634C5.51786 15.4286 3.65625 16.1116 1.63393 16.1116C1.27232 16.1116 0.9375 16.0982 0.589286 16.058C2.50446 17.2902 4.78125 18 7.23214 18C15.1875 18 19.5402 11.4107 19.5402 5.69196C19.5402 5.50446 19.5402 5.31696 19.5268 5.12946C20.3705 4.51339 21.1071 3.75 21.6964 2.89286Z" fill="black"/>
</svg>

<svg width="22" height="18" viewBox="0 0 22 18" fill="none" xmlns="http://www.w3.org/2000/svg"><path d="M21.696 2.893a8.673 8.673 0 01-2.49.67 4.314 4.314 0 001.901-2.384 8.515 8.515 0 01-2.745 1.044A4.316 4.316 0 0015.2.857a4.324 4.324 0 00-4.326 4.326c0 .335.04.67.107.991a12.296 12.296 0 01-8.92-4.527 4.294 4.294 0 00-.589 2.183c0 1.5.764 2.826 1.929 3.603a4.357 4.357 0 01-1.956-.55v.054a4.326 4.326 0 003.47 4.246c-.362.094-.75.147-1.14.147-.28 0-.548-.026-.816-.067a4.333 4.333 0 004.044 3 8.663 8.663 0 01-5.37 1.849c-.362 0-.696-.014-1.045-.054A12.224 12.224 0 007.232 18c7.955 0 12.308-6.59 12.308-12.308 0-.188 0-.375-.013-.563a9.3 9.3 0 002.17-2.236z" fill="#000"/></svg>
